X: 813
T: Well's Humour
P: Longways for as many as will
%R: minuet
B: "The Compleat Country Dancing-Master" printed by John Walsh, London ca. 1740
S: 6: CCDM1 http://imslp.org/wiki/The_Compleat_Country_Dancing-Master_(Various) V.1 p.63 #95
B: "The Dancing-Master: Containing Directions and Tunes for Dancing" printed by W. Pearson for John Walsh, London ca. 1709
S: 7: DMDfD http://digital.nls.uk/special-collections-of-printed-music/pageturner.cfm?id=89751228 p.262
Z: 2013 John Chambers <jc:trillian.mit.edu>
M: 3/4
L: 1/16
K: Em
% - - - - - - - - - - - - - - - - - - - - - - - - -
ef |\
g2 e4 dc (B2cd) | e2 E4 FG (A2Bc) |\
(B2ed) (cB)(AG) (FG)(AF) | G2 E4 B2 e2 |]\
gf |\
e2 g4 fe (de)(dc) | B2 d4 de (dc)(BA) |
(GB)d2 Bdg2 dgb2 | g2 d4 (ga) bagf |\
e2 g4 (fg) agfe | ^d2 f4 (gf) (e2dc) |\
(B2ed) (cB)(AG) FGAF | G2 E4 B2 e2 |]
% - - - - - - - - - - - - - - - - - - - - - - - - -
%%begintext align
%% The 1st Cu. cross over behind the 2d Cu. and lead through
%% the 3d Cu. then cross again into their Places above, and turn
%% single.  Then first Man change places with the 2d Wo. and
%% the 1st Wo. with the 2d Man, Hands half round, then right
%% and left 'till you come into the 2d Cu. Place.
%% [CCDM1]
%%endtext
%%sep 1 8 500
% - - - - - - - - - - - - - - - - - - - - - - - - -
%%begintext align
%% The 1. cu. cross over behind the 2. cu. and lead through the 3. cu. then cross again into their places
%% above and turn S. the 1. man change places with the 2. wo. the 1. wo. with the 2. man, hands half
%% round, then right and left till you come into the 2. cu. place.
%% [DMDfD]
%%endtext
%%sep 1 8 500

%%sep 1 1 500
%%sep 1 1 500
